source/assets/img/quote-razorpay.svg

<?xml version="1.0" encoding="UTF-8"?>
<svg width="146px" height="33px" viewBox="0 0 146 33" version="1.1" xmlns="http://www.w3.org/2000/svg" xmlns:xlink="http://www.w3.org/1999/xlink">
    <defs></defs>
    <g id="Page-1" stroke="none" stroke-width="1" fill="none" fill-rule="evenodd">
        <g id="Sponsor-Page" transform="translate(-200.000000, -1563.000000)" fill-rule="nonzero" fill="#3A3A62">
            <g id="Razorpay_Logo" transform="translate(200.000000, 1563.000000)">
                <polygon id="Shape" points="10.120944 14.2285714 4.69439528 26.3571429 7.96755162 26.3571429 14.7722714 11.1857143"></polygon>
                <path d="M33.2053097,26.3571429 L27.6926254,26.3571429 L25.9699115,18.6 L23.7734513,18.6 L20.2849558,26.3571429 L15.5044248,26.3571429 L24.3333333,6.64285714 L33.2483776,6.64285714 C35.8755162,6.64285714 37.6412979,6.94285714 38.5457227,7.58571429 C39.4501475,8.22857143 39.579351,9.3 38.8902655,10.8 L37.339823,14.2714286 C36.8230088,15.4714286 35.9616519,16.3714286 34.7988201,17.0571429 C33.6359882,17.7 32.3870206,18.1285714 31.0088496,18.2571429 L33.2053097,26.3571429 Z M33.1622419,13.3285714 L33.8082596,11.9142857 C34.1528024,11.1857143 34.1528024,10.6714286 33.8082596,10.4142857 C33.5067847,10.1571429 32.8176991,9.98571429 31.7410029,9.98571429 L27.6495575,9.98571429 L25.1946903,15.4714286 L29.2861357,15.4714286 C30.4058997,15.4714286 31.2241888,15.3428571 31.7840708,15.0428571 C32.300885,14.7428571 32.7746313,14.1428571 33.1622419,13.3285714 Z" id="Shape"></path>
                <path d="M47.9345133,26.3571429 L43.5846608,26.3571429 L44.1876106,25.0285714 C43.5846608,25.6285714 42.9386431,26.0571429 42.2064897,26.2714286 C41.4743363,26.5285714 40.3115044,26.6571429 38.6749263,26.6571429 C36.6938053,26.6571429 35.4879056,26.3571429 35.100295,25.7571429 C34.7126844,25.1571429 34.9710914,23.8714286 35.8324484,21.9428571 C36.6076696,20.1857143 37.5120944,18.9857143 38.459587,18.3 C39.4501475,17.6142857 40.7852507,17.2714286 42.5079646,17.2714286 L47.5038348,17.2714286 L47.9345133,16.2857143 C48.3221239,15.3857143 48.4082596,14.7857143 48.1067847,14.4857143 C47.8053097,14.1857143 46.9870206,14.0571429 45.6519174,14.0571429 C44.4029499,14.0571429 42.5941003,14.1857143 40.3115044,14.4 L41.560472,11.6142857 C43.3262537,11.4 45.2643068,11.3142857 47.3315634,11.3142857 C50.0448378,11.3142857 51.8106195,11.6571429 52.5858407,12.3 C53.3610619,12.9428571 53.3179941,14.2714286 52.4135693,16.2 L47.9345133,26.3571429 Z M45.1351032,22.5857143 L46.4271386,19.7142857 L43.3693215,19.7142857 C42.3787611,19.7142857 41.7327434,19.8428571 41.3882006,20.0571429 C41.0436578,20.2714286 40.6560472,20.8714286 40.2253687,21.8571429 C39.7946903,22.8 39.6654867,23.4 39.8377581,23.5714286 C40.0100295,23.7857143 40.6129794,23.8714286 41.6466077,23.8714286 L42.7663717,23.8714286 C43.0247788,23.8714286 43.2831858,23.8285714 43.5846608,23.7857143 C43.8861357,23.7428571 44.1014749,23.7 44.2737463,23.5714286 C44.4460177,23.4857143 44.5752212,23.3571429 44.7474926,23.1857143 C44.8766962,23.0571429 45.0489676,22.8428571 45.1351032,22.5857143 Z" id="Shape"></path>
                <polygon id="Shape" points="62.879056 26.3571429 49.5710914 26.3571429 50.6477876 24 62.319174 14.5285714 55.1699115 14.5285714 56.4619469 11.6571429 69.2961652 11.6571429 68.219469 14.0142857 56.5480826 23.4857143 64.1710914 23.4857143"></polygon>
                <path d="M83.4654867,16.9714286 L81.5274336,21.3 C81.0967552,22.2428571 80.579941,23.0571429 79.9769912,23.7428571 C79.3740413,24.4285714 78.7710914,24.9428571 78.1250737,25.3285714 C77.5221239,25.7142857 76.7899705,25.9714286 75.9716814,26.1857143 C75.1533923,26.4 74.4212389,26.5285714 73.8182891,26.5714286 C73.2153392,26.6142857 72.440118,26.6571429 71.5787611,26.6571429 C70.7174041,26.6571429 69.9852507,26.6142857 69.4253687,26.5714286 C68.8654867,26.5285714 68.2625369,26.4 67.6165192,26.1857143 C66.9705015,25.9714286 66.539823,25.7142857 66.2383481,25.3285714 C65.9368732,24.9428571 65.8076696,24.4285714 65.8076696,23.7428571 C65.8076696,23.0571429 66.0230088,22.2428571 66.4536873,21.3 L68.3917404,16.9714286 C68.8654867,15.9428571 69.3823009,15.0857143 70.0283186,14.3571429 C70.6743363,13.6285714 71.320354,13.0714286 71.9233038,12.6857143 C72.5693215,12.3 73.3014749,12 74.119764,11.7857143 C74.9380531,11.5714286 75.6702065,11.4428571 76.2731563,11.4 C76.8761062,11.3571429 77.6082596,11.3142857 78.4265487,11.3142857 C79.2448378,11.3142857 79.9769912,11.3571429 80.5368732,11.4 C81.0967552,11.4428571 81.699705,11.5714286 82.3457227,11.7857143 C82.9917404,12 83.4654867,12.3 83.7238938,12.6857143 C84.0253687,13.0714286 84.1545723,13.6285714 84.1545723,14.3571429 C84.1115044,15.0857143 83.8961652,15.9428571 83.4654867,16.9714286 Z M76.7899705,21.8142857 L79.2879056,16.2428571 C79.6324484,15.4714286 79.6755162,14.8714286 79.4171091,14.5714286 C79.1587021,14.2285714 78.4265487,14.0571429 77.1775811,14.0571429 C75.9716814,14.0571429 75.0672566,14.2285714 74.5073746,14.5714286 C73.9474926,14.9142857 73.4737463,15.4714286 73.1292035,16.2428571 L70.6312684,21.8142857 C70.2867257,22.5857143 70.2436578,23.1428571 70.5020649,23.4428571 C70.760472,23.7428571 71.5356932,23.9142857 72.7415929,23.9142857 C73.9905605,23.9142857 74.8519174,23.7428571 75.4117994,23.4428571 C76.0147493,23.1428571 76.4454277,22.5857143 76.7899705,21.8142857 Z" id="Shape"></path>
                <path d="M95.9551622,15 L94.4477876,15 C93.2418879,15 92.2082596,15.1714286 91.4330383,15.5571429 C90.6578171,15.9428571 90.0548673,16.5857143 89.6241888,17.4857143 L85.6619469,26.3142857 L81.1828909,26.3142857 L87.7722714,11.6142857 L92.0359882,11.6142857 L90.8731563,14.1857143 C91.2176991,13.4571429 91.9498525,12.7714286 93.0265487,12.2142857 C94.1032448,11.6142857 95.0938053,11.3142857 95.9982301,11.3142857 L97.5917404,11.3142857 L95.9551622,15 Z" id="Shape"></path>
                <path d="M111.847198,16.2857143 L109.693805,21.1285714 C108.703245,23.3142857 107.583481,24.7714286 106.248378,25.5428571 C104.913274,26.2714286 103.19056,26.6571429 100.9941,26.6571429 C99.6159292,26.6571429 98.6253687,26.5285714 98.0224189,26.3142857 C97.419469,26.1 97.2041298,25.5857143 97.3333333,24.8571429 L93.8448378,32.6571429 L89.3657817,32.6571429 L98.7976401,11.6142857 L103.018289,11.6142857 L102.372271,13.0714286 C102.932153,12.4285714 103.664307,11.9571429 104.568732,11.7 C105.473156,11.4428571 106.679056,11.3142857 108.186431,11.3142857 C109.435398,11.3142857 110.425959,11.4 111.158112,11.6142857 C111.847198,11.8285714 112.320944,12.1285714 112.536283,12.6 C112.751622,13.0714286 112.79469,13.5428571 112.665487,14.1 C112.493215,14.7 112.234808,15.4285714 111.847198,16.2857143 Z M104.956342,21.7285714 L107.411209,16.2857143 C107.841888,15.3428571 107.928024,14.7428571 107.669617,14.4857143 C107.411209,14.2285714 106.59292,14.1 105.214749,14.1 C103.965782,14.1 103.061357,14.2714286 102.544543,14.5714286 C102.027729,14.9142857 101.59705,15.4714286 101.20944,16.2857143 L98.7545723,21.7285714 C98.3669617,22.5857143 98.280826,23.1857143 98.539233,23.4857143 C98.7545723,23.7857143 99.5297935,23.9142857 100.864897,23.9142857 C102.156932,23.9142857 103.104425,23.7857143 103.621239,23.4857143 C104.094985,23.1857143 104.568732,22.5857143 104.956342,21.7285714 Z" id="Shape"></path>
                <path d="M122.872566,26.3571429 L118.522714,26.3571429 L119.125664,25.0285714 C118.522714,25.6285714 117.876696,26.0571429 117.144543,26.2714286 C116.412389,26.5285714 115.249558,26.6571429 113.612979,26.6571429 C111.631858,26.6571429 110.425959,26.3571429 110.038348,25.7571429 C109.650737,25.1571429 109.909145,23.8714286 110.770501,21.9428571 C111.545723,20.1857143 112.450147,18.9857143 113.39764,18.3 C114.388201,17.6142857 115.723304,17.2714286 117.446018,17.2714286 L122.441888,17.2714286 L122.872566,16.2857143 C123.260177,15.3857143 123.346313,14.7857143 123.044838,14.4857143 C122.743363,14.1857143 121.925074,14.0571429 120.589971,14.0571429 C119.341003,14.0571429 117.532153,14.1857143 115.249558,14.4 L116.498525,11.6142857 C118.264307,11.4 120.20236,11.3142857 122.269617,11.3142857 C124.982891,11.3142857 126.748673,11.6571429 127.523894,12.3 C128.299115,12.9428571 128.256047,14.2714286 127.351622,16.2 L122.872566,26.3571429 Z M120.073156,22.5857143 L121.365192,19.7142857 L118.307375,19.7142857 C117.316814,19.7142857 116.670796,19.8428571 116.326254,20.0571429 C115.981711,20.2714286 115.5941,20.8714286 115.163422,21.8571429 C114.732743,22.8 114.60354,23.4 114.775811,23.5714286 C114.948083,23.7857143 115.551032,23.8714286 116.584661,23.8714286 L117.704425,23.8714286 C117.962832,23.8714286 118.221239,23.8285714 118.522714,23.7857143 C118.824189,23.7428571 119.039528,23.7 119.211799,23.5714286 C119.384071,23.4857143 119.513274,23.3571429 119.685546,23.1857143 C119.857817,23.0571429 119.987021,22.8428571 120.073156,22.5857143 Z" id="Shape"></path>
                <polygon id="Shape" points="145.956932 11.6571429 128.428319 32.7 123.906195 32.7 129.461947 26.2714286 130.107965 11.6571429 134.974631 11.6571429 133.639528 22.0714286 141.305605 11.6571429"></polygon>
                <polygon id="Shape" points="12.4896755 7.92857143 10.120944 13.2 16.7533923 8.87142857 8.91504425 26.3571429 12.4896755 26.3571429 24.1179941 0.3"></polygon>
                <polygon id="Shape" points="9.13038348 14.3571429 4.09144543 17.6571429 0.215339233 26.3571429 3.74690265 26.3571429"></polygon>
            </g>
        </g>
    </g>
</svg>

<svg width="146" height="33" viewBox="0 0 146 33" xmlns="http://www.w3.org/2000/svg"><g fill-rule="nonzero" fill="#3A3A62"><path d="M10.121 14.229l-5.427 12.129h3.273l6.805-15.171zM33.205 26.357h-5.513l-1.723-7.757h-2.196l-3.488 7.757h-4.781l8.829-19.714h8.915c2.627 0 4.393.3 5.297.943.904.643 1.034 1.714.345 3.214l-1.55 3.471c-.517 1.2-1.378 2.1-2.541 2.786-1.163.643-2.412 1.071-3.79 1.2l2.196 8.1zm-.043-13.029l.646-1.414c.345-.729.345-1.243 0-1.5-.301-.257-.991-.429-2.067-.429h-4.091l-2.455 5.486h4.091c1.12 0 1.938-.129 2.498-.429.517-.3.991-.9 1.378-1.714zM47.935 26.357h-4.35l.603-1.329c-.603.6-1.249 1.029-1.981 1.243-.732.257-1.895.386-3.532.386-1.981 0-3.187-.3-3.575-.9-.388-.6-.129-1.886.732-3.814.775-1.757 1.68-2.957 2.627-3.643.991-.686 2.326-1.029 4.048-1.029h4.996l.431-.986c.388-.9.474-1.5.172-1.8-.301-.3-1.12-.429-2.455-.429-1.249 0-3.058.129-5.34.343l1.249-2.786c1.766-.214 3.704-.3 5.771-.3 2.713 0 4.479.343 5.254.986.775.643.732 1.971-.172 3.9l-4.479 10.157zm-2.799-3.771l1.292-2.871h-3.058c-.991 0-1.637.129-1.981.343-.345.214-.732.814-1.163 1.8-.431.943-.56 1.543-.388 1.714.172.214.775.3 1.809.3h1.12c.258 0 .517-.043.818-.086.301-.043.517-.086.689-.214.172-.086.301-.214.474-.386.129-.129.301-.343.388-.6zM62.879 26.357h-13.308l1.077-2.357 11.671-9.471h-7.149l1.292-2.871h12.834l-1.077 2.357-11.671 9.471h7.623zM83.465 16.971l-1.938 4.329c-.431.943-.947 1.757-1.55 2.443-.603.686-1.206 1.2-1.852 1.586-.603.386-1.335.643-2.153.857-.818.214-1.55.343-2.153.386-.603.043-1.378.086-2.24.086-.861 0-1.594-.043-2.153-.086-.56-.043-1.163-.171-1.809-.386-.646-.214-1.077-.471-1.378-.857-.301-.386-.431-.9-.431-1.586s.215-1.5.646-2.443l1.938-4.329c.474-1.029.991-1.886 1.637-2.614.646-.729 1.292-1.286 1.895-1.671.646-.386 1.378-.686 2.196-.9.818-.214 1.55-.343 2.153-.386.603-.043 1.335-.086 2.153-.086.818 0 1.55.043 2.11.086.56.043 1.163.171 1.809.386.646.214 1.12.514 1.378.9.301.386.431.943.431 1.671-.043.729-.258 1.586-.689 2.614zm-6.676 4.843l2.498-5.571c.345-.771.388-1.371.129-1.671-.258-.343-.991-.514-2.24-.514-1.206 0-2.11.171-2.67.514-.56.343-1.034.9-1.378 1.671l-2.498 5.571c-.345.771-.388 1.329-.129 1.629.258.3 1.034.471 2.24.471 1.249 0 2.11-.171 2.67-.471.603-.3 1.034-.857 1.378-1.629zM95.955 15h-1.507c-1.206 0-2.24.171-3.015.557-.775.386-1.378 1.029-1.809 1.929l-3.962 8.829h-4.479l6.589-14.7h4.264l-1.163 2.571c.345-.729 1.077-1.414 2.153-1.971 1.077-.6 2.067-.9 2.972-.9h1.594l-1.637 3.686zM111.847 16.286l-2.153 4.843c-.991 2.186-2.11 3.643-3.445 4.414-1.335.729-3.058 1.114-5.254 1.114-1.378 0-2.369-.129-2.972-.343-.603-.214-.818-.729-.689-1.457l-3.488 7.8h-4.479l9.432-21.043h4.221l-.646 1.457c.56-.643 1.292-1.114 2.196-1.371.904-.257 2.11-.386 3.618-.386 1.249 0 2.24.086 2.972.3.689.214 1.163.514 1.378.986.215.471.258.943.129 1.5-.172.6-.431 1.329-.818 2.186zm-6.891 5.443l2.455-5.443c.431-.943.517-1.543.258-1.8-.258-.257-1.077-.386-2.455-.386-1.249 0-2.153.171-2.67.471-.517.343-.947.9-1.335 1.714l-2.455 5.443c-.388.857-.474 1.457-.215 1.757.215.3.991.429 2.326.429 1.292 0 2.24-.129 2.756-.429.474-.3.947-.9 1.335-1.757zM122.873 26.357h-4.35l.603-1.329c-.603.6-1.249 1.029-1.981 1.243-.732.257-1.895.386-3.532.386-1.981 0-3.187-.3-3.575-.9-.388-.6-.129-1.886.732-3.814.775-1.757 1.68-2.957 2.627-3.643.991-.686 2.326-1.029 4.048-1.029h4.996l.431-.986c.388-.9.474-1.5.172-1.8-.301-.3-1.12-.429-2.455-.429-1.249 0-3.058.129-5.34.343l1.249-2.786c1.766-.214 3.704-.3 5.771-.3 2.713 0 4.479.343 5.254.986.775.643.732 1.971-.172 3.9l-4.479 10.157zm-2.799-3.771l1.292-2.871h-3.058c-.991 0-1.637.129-1.981.343-.345.214-.732.814-1.163 1.8-.431.943-.56 1.543-.388 1.714.172.214.775.3 1.809.3h1.12c.258 0 .517-.043.818-.086.301-.043.517-.086.689-.214.172-.086.301-.214.474-.386.172-.129.301-.343.388-.6zM145.957 11.657l-17.529 21.043h-4.522l5.556-6.429.646-14.614h4.867l-1.335 10.414 7.666-10.414zM12.49 7.929l-2.369 5.271 6.632-4.329-7.838 17.486h3.575l11.628-26.057zM9.13 14.357l-5.039 3.3-3.876 8.7h3.532z"/></g></svg>
